images_elementary_svg/cmd/sc_changedatabasefield.svg

<?xml version="1.0" encoding="UTF-8" standalone="no"?>
<svg
   xmlns:dc="http://purl.org/dc/elements/1.1/"
   xmlns:cc="http://creativecommons.org/ns#"
   xmlns:rdf="http://www.w3.org/1999/02/22-rdf-syntax-ns#"
   xmlns:svg="http://www.w3.org/2000/svg"
   xmlns="http://www.w3.org/2000/svg"
   xmlns:xlink="http://www.w3.org/1999/xlink"
   xmlns:sodipodi="http://sodipodi.sourceforge.net/DTD/sodipodi-0.dtd"
   xmlns:inkscape="http://www.inkscape.org/namespaces/inkscape"
   version="1.1"
   width="16"
   height="16"
   id="svg3202"
   sodipodi:docname="sc_changedatabasefield.svg"
   inkscape:version="0.92.3 (unknown)">
  <sodipodi:namedview
     pagecolor="#ffffff"
     bordercolor="#666666"
     borderopacity="1"
     objecttolerance="10"
     gridtolerance="10"
     guidetolerance="10"
     inkscape:pageopacity="0"
     inkscape:pageshadow="2"
     inkscape:window-width="1366"
     inkscape:window-height="706"
     id="namedview51"
     showgrid="false"
     inkscape:zoom="14.75"
     inkscape:cx="-0.71186441"
     inkscape:cy="8"
     inkscape:window-x="0"
     inkscape:window-y="0"
     inkscape:window-maximized="1"
     inkscape:current-layer="svg3202" />
  <defs
     id="defs3204">
    <linearGradient
       x1="21.381216"
       y1="5.0524864"
       x2="21.381216"
       y2="44.137077"
       id="linearGradient3110"
       xlink:href="#linearGradient3125"
       gradientUnits="userSpaceOnUse"
       gradientTransform="matrix(0.31428569,0,0,0.34210527,0.45714243,15.618423)" />
    <linearGradient
       id="linearGradient3125">
      <stop
         id="stop3127"
         style="stop-color:#ffffff;stop-opacity:1"
         offset="0" />
      <stop
         id="stop3129"
         style="stop-color:#ffffff;stop-opacity:0.23529412"
         offset="0.08125819" />
      <stop
         id="stop3131"
         style="stop-color:#ffffff;stop-opacity:0.15686275"
         offset="0.92327863" />
      <stop
         id="stop3133"
         style="stop-color:#ffffff;stop-opacity:0.39215687"
         offset="1" />
    </linearGradient>
    <linearGradient
       id="linearGradient2793">
      <stop
         id="stop2795"
         style="stop-color:#868688;stop-opacity:1"
         offset="0" />
      <stop
         id="stop2797"
         style="stop-color:#d9d9da;stop-opacity:1"
         offset="1" />
    </linearGradient>
    <linearGradient
       id="linearGradient3858">
      <stop
         id="stop3860"
         style="stop-color:#a0a0a0;stop-opacity:1"
         offset="0" />
      <stop
         id="stop3862"
         style="stop-color:#4a4a4a;stop-opacity:1"
         offset="1" />
    </linearGradient>
    <linearGradient
       id="linearGradient2793-4">
      <stop
         id="stop2795-9"
         style="stop-color:#868688;stop-opacity:1"
         offset="0" />
      <stop
         id="stop2797-8"
         style="stop-color:#d9d9da;stop-opacity:1"
         offset="1" />
    </linearGradient>
    <linearGradient
       id="linearGradient3858-22">
      <stop
         id="stop3860-52"
         style="stop-color:#a0a0a0;stop-opacity:1"
         offset="0" />
      <stop
         id="stop3862-32"
         style="stop-color:#4a4a4a;stop-opacity:1"
         offset="1" />
    </linearGradient>
    <linearGradient
       id="linearGradient2793-3-0">
      <stop
         id="stop2795-3-9"
         style="stop-color:#868688;stop-opacity:1"
         offset="0" />
      <stop
         id="stop2797-7-4"
         style="stop-color:#d9d9da;stop-opacity:1"
         offset="1" />
    </linearGradient>
    <linearGradient
       id="linearGradient3858-4-6">
      <stop
         id="stop3860-9-8"
         style="stop-color:#a0a0a0;stop-opacity:1"
         offset="0" />
      <stop
         id="stop3862-9-2"
         style="stop-color:#4a4a4a;stop-opacity:1"
         offset="1" />
    </linearGradient>
    <linearGradient
       id="linearGradient3844-4-1">
      <stop
         id="stop3846-6-6"
         style="stop-color:#a5a6a8;stop-opacity:1"
         offset="0" />
      <stop
         id="stop3848-9-0"
         style="stop-color:#e8e8e8;stop-opacity:1"
         offset="1" />
    </linearGradient>
    <linearGradient
       id="linearGradient2509-9-1">
      <stop
         id="stop2511-0-9"
         style="stop-color:#b3b3b3;stop-opacity:1"
         offset="0" />
      <stop
         id="stop2513-3-1"
         style="stop-color:#dadada;stop-opacity:1"
         offset="1" />
    </linearGradient>
    <linearGradient
       x1="102.30806"
       y1="-2.3925467"
       x2="102.30806"
       y2="-24.582239"
       id="linearGradient3029"
       xlink:href="#linearGradient3844-4-1"
       gradientUnits="userSpaceOnUse"
       gradientTransform="matrix(0.25894051,0,0,0.19506397,-18.915491,21.136932)"
       spreadMethod="reflect" />
    <linearGradient
       x1="109.95628"
       y1="-24.91135"
       x2="109.95628"
       y2="-2.3757858"
       id="linearGradient3031"
       xlink:href="#linearGradient2509-9-1"
       gradientUnits="userSpaceOnUse"
       gradientTransform="matrix(0.25894051,0,0,0.19506397,-18.915491,21.136932)" />
    <linearGradient
       x1="103.95014"
       y1="-7.6656942"
       x2="89.423676"
       y2="-7.6656942"
       id="linearGradient3034"
       xlink:href="#linearGradient2793-3-0"
       gradientUnits="userSpaceOnUse"
       gradientTransform="matrix(0.25763669,0,0,0.2519943,-18.787395,24.390022)"
       spreadMethod="reflect" />
    <linearGradient
       x1="89.01844"
       y1="22.536863"
       x2="89.01844"
       y2="27.54611"
       id="linearGradient3036"
       xlink:href="#linearGradient3858-4-6"
       gradientUnits="userSpaceOnUse"
       gradientTransform="matrix(0.56272887,0,0,0.58293421,-44.991146,7.8010968)" />
    <linearGradient
       x1="103.95014"
       y1="-7.6656942"
       x2="89.423676"
       y2="-7.6656942"
       id="linearGradient3040"
       xlink:href="#linearGradient2793-4"
       gradientUnits="userSpaceOnUse"
       gradientTransform="matrix(0.25763669,0,0,0.25599322,-18.787395,28.335879)"
       spreadMethod="reflect" />
    <linearGradient
       x1="89.01844"
       y1="22.536863"
       x2="89.01844"
       y2="27.54611"
       id="linearGradient3042"
       xlink:href="#linearGradient3858-22"
       gradientUnits="userSpaceOnUse"
       gradientTransform="matrix(0.56272887,0,0,0.59218484,-44.991146,11.483703)" />
    <linearGradient
       x1="103.95014"
       y1="-7.6656942"
       x2="89.423676"
       y2="-7.6656942"
       id="linearGradient3046"
       xlink:href="#linearGradient2793"
       gradientUnits="userSpaceOnUse"
       gradientTransform="matrix(0.25763669,0,0,0.25599322,-18.787395,32.335879)"
       spreadMethod="reflect" />
    <linearGradient
       x1="89.01844"
       y1="22.536863"
       x2="89.01844"
       y2="27.54611"
       id="linearGradient3048"
       xlink:href="#linearGradient3858"
       gradientUnits="userSpaceOnUse"
       gradientTransform="matrix(0.56272887,0,0,0.59218484,-44.991146,15.483703)" />
    <linearGradient
       id="c"
       gradientTransform="matrix(0.31834337,0,0,0.29647987,-3.551282,6.611783)"
       gradientUnits="userSpaceOnUse"
       x1="23.731871"
       x2="23.731871"
       y1="5.3943448"
       y2="39.735077">
      <stop
         offset="0"
         stop-color="#90dbec"
         id="stop12" />
      <stop
         offset=".26238"
         stop-color="#55c1ec"
         id="stop14" />
      <stop
         offset=".704952"
         stop-color="#3689e6"
         id="stop16" />
      <stop
         offset="1"
         stop-color="#2b63a0"
         id="stop18" />
    </linearGradient>
    <linearGradient
       id="d"
       gradientTransform="matrix(0,-0.34745249,0.37307493,0,-16.814512,22.560996)"
       gradientUnits="userSpaceOnUse"
       x1="40.957993"
       x2="18.680689"
       xlink:href="#b"
       y1="46.97065"
       y2="46.97065" />
    <linearGradient
       id="b"
       gradientTransform="matrix(0,-0.5372019,0.57681717,0,-15.997188,19.865617)"
       gradientUnits="userSpaceOnUse"
       x1="40.957993"
       x2="18.680689"
       y1="46.97065"
       y2="46.97065">
      <stop
         offset="0"
         stop-color="#fff"
         id="stop3" />
      <stop
         offset=".45000002"
         stop-color="#fff"
         stop-opacity=".235294"
         id="stop5" />
      <stop
         offset=".65000004"
         stop-color="#fff"
         stop-opacity=".156863"
         id="stop7" />
      <stop
         offset="1"
         stop-color="#fff"
         stop-opacity=".392157"
         id="stop9" />
    </linearGradient>
    <linearGradient
       id="a"
       gradientTransform="matrix(0,-0.34745249,-0.37307493,0,32.814511,18.560996)"
       gradientUnits="userSpaceOnUse"
       x1="40.957993"
       x2="18.680689"
       xlink:href="#b"
       y1="46.97065"
       y2="46.97065" />
  </defs>
  <metadata
     id="metadata3207">
    <rdf:RDF>
      <cc:Work
         rdf:about="">
        <dc:format>image/svg+xml</dc:format>
        <dc:type
           rdf:resource="http://purl.org/dc/dcmitype/StillImage" />
        <dc:title></dc:title>
      </cc:Work>
    </rdf:RDF>
  </metadata>
  <g
     transform="translate(0,-16)"
     id="layer1">
    <path
       d="m 14.459827,29.5 c 0,1.198813 -2.897339,2 -6.4672665,2 -3.5699332,0 -6.4672704,-0.801187 -6.4672704,-2 0,-4.634373 -0.79047651,-3.194781 6.4672704,-3.249422 C 15.416523,26.194208 14.459827,24.840267 14.459827,29.5 z"
       id="path4834"
       style="fill:url(#linearGradient3046);fill-opacity:1;stroke:url(#linearGradient3048);stroke-width:0.99999988;stroke-miterlimit:4;stroke-opacity:1;stroke-dasharray:none" />
    <path
       d="m 14.5,26.5 c 0,1.10457 -2.91015,2 -6.4999994,2 C 4.4101495,28.5 1.5,27.60457 1.5,26.5 c 0,-1.10457 2.9101495,-2 6.5000006,-2 C 11.58985,24.5 14.5,25.39543 14.5,26.5 l 0,0 z"
       id="path4838"
       style="fill:none;stroke:#d8d8d8;stroke-width:1;stroke-miterlimit:4;stroke-opacity:1;stroke-dasharray:none" />
    <path
       d="m 14.459827,25.5 c 0,1.157142 -2.897339,2 -6.4672665,2 -3.5699332,0 -6.4672704,-0.801187 -6.4672704,-2 0,-4.634373 -0.79047651,-3.194781 6.4672704,-3.249422 C 15.416523,22.194208 14.459827,20.840267 14.459827,25.5 z"
       id="path4834-7"
       style="fill:url(#linearGradient3040);fill-opacity:1;stroke:url(#linearGradient3042);stroke-width:0.99999988;stroke-miterlimit:4;stroke-opacity:1;stroke-dasharray:none" />
    <path
       d="m 14.5,22.5 c 0,1.10457 -2.91015,2 -6.4999994,2 C 4.4101495,24.5 1.5,23.60457 1.5,22.5 c 0,-1.10457 2.9101495,-2 6.5000006,-2 C 11.58985,20.5 14.5,21.39543 14.5,22.5 l 0,0 z"
       id="path4838-3"
       style="fill:none;stroke:#d8d8d8;stroke-width:1;stroke-miterlimit:4;stroke-opacity:1;stroke-dasharray:none" />
    <path
       d="m 14.459827,21.5 c 0,1.217851 -2.897339,2 -6.4672665,2 -3.5699332,0 -6.4672704,-0.948833 -6.4672704,-2 0,-4.344467 -0.79047651,-3.046433 6.4672704,-3.10022 7.4239625,-0.0555 6.4672665,-0.829521 6.4672665,3.10022 z"
       id="path3878"
       style="fill:url(#linearGradient3034);fill-opacity:1;stroke:url(#linearGradient3036);stroke-width:0.99999988;stroke-miterlimit:4;stroke-opacity:1;stroke-dasharray:none" />
    <path
       d="m 14.5,18.5 c 0,1.104569 -2.91015,2 -6.4999994,2 C 4.4101495,20.5 1.5,19.604569 1.5,18.5 c 0,-1.104569 2.9101495,-2 6.5000006,-2 C 11.58985,16.5 14.5,17.395431 14.5,18.5 l 0,0 z"
       id="path3880"
       style="fill:url(#linearGradient3029);fill-opacity:1;stroke:url(#linearGradient3031);stroke-width:0.99999994;stroke-miterlimit:4;stroke-opacity:1;stroke-dasharray:none" />
    <rect
       width="11"
       height="13"
       rx="17.5"
       ry="1.5"
       x="2.5"
       y="17.5"
       id="rect3145"
       style="opacity:0.5;color:#000000;fill:none;stroke:url(#linearGradient3110);stroke-width:1;stroke-opacity:1;marker:none;visibility:visible;display:inline;overflow:visible;enable-background:accumulate" />
  </g>
  <g
     style="stroke-linecap:round;stroke-linejoin:round"
     id="g57">
    <path
       style="display:block;fill:url(#c)"
       inkscape:connector-curvature="0"
       d="M 4.2040827,15.676645 8.7315563,12.00744 4.2040827,8.3233555 V 10.682446 H 0.32339096 v 2.587128 H 4.2040827 Z"
       display="block"
       id="path47" />
    <path
       inkscape:connector-curvature="0"
       d="M 4.2040827,15.676645 8.7315563,12.00744 4.2040827,8.3233553 V 10.682446 H 0.32339096 v 2.587128 H 4.2040827 Z"
       style="display:block;fill:#46a9eb;fill-opacity:0.98431402;stroke:#2f78c8;stroke-width:0.64678198;stroke-miterlimit:7"
       id="path49" />
    <path
       style="display:block;fill:none;stroke:url(#d);stroke-width:0.62344903;stroke-miterlimit:7"
       inkscape:connector-curvature="0"
       d="M 4.8508646,14.311812 7.7190767,12.00744 4.8508646,9.6642293 V 11.329228 H 0.97017286 v 1.293564 H 4.8508646 Z"
       display="block"
       stroke-miterlimit="7"
       id="path51" />
    <path
       style="display:block;fill:#d8a7ff;stroke:#8e56dc;stroke-width:0.64678198;stroke-miterlimit:7"
       inkscape:connector-curvature="0"
       d="M 11.795917,11.676645 7.2684432,8.0074395 11.795917,4.3233553 v 2.3590905 h 3.880692 v 2.5871279 h -3.880692 z"
       display="block"
       stroke-miterlimit="7"
       id="path53" />
    <path
       style="display:block;fill:none;stroke:url(#a);stroke-width:0.62344903;stroke-miterlimit:7"
       inkscape:connector-curvature="0"
       d="M 11.149135,10.311812 8.2809228,8.0074395 11.149135,5.6642293 v 1.6649986 h 3.880692 v 1.2935639 h -3.880692 z"
       display="block"
       stroke-miterlimit="7"
       id="path55" />
  </g>
</svg>

<?xml version="1.0" encoding="UTF-8" standalone="no"?>
<svg xmlns:rdf="http://www.w3.org/1999/02/22-rdf-syntax-ns#" xmlns="http://www.w3.org/2000/svg" height="16" width="16" version="1.1" xmlns:cc="http://creativecommons.org/ns#" xmlns:xlink="http://www.w3.org/1999/xlink" xmlns:dc="http://purl.org/dc/elements/1.1/">
 <defs>
  <linearGradient id="linearGradient3110" y2="44.137" gradientUnits="userSpaceOnUse" x2="21.381" gradientTransform="matrix(.31429 0 0 .34211 .45714 15.618)" y1="5.0525" x1="21.381">
   <stop stop-color="#fff" offset="0"/>
   <stop stop-color="#fff" stop-opacity=".23529" offset=".081258"/>
   <stop stop-color="#fff" stop-opacity=".15686" offset=".92328"/>
   <stop stop-color="#fff" stop-opacity=".39216" offset="1"/>
  </linearGradient>
  <linearGradient id="linearGradient3029" y2="-24.582" spreadMethod="reflect" gradientUnits="userSpaceOnUse" x2="102.31" gradientTransform="matrix(.25894 0 0 .19506 -18.915 21.137)" y1="-2.3925" x1="102.31">
   <stop stop-color="#a5a6a8" offset="0"/>
   <stop stop-color="#e8e8e8" offset="1"/>
  </linearGradient>
  <linearGradient id="linearGradient3031" y2="-2.3758" gradientUnits="userSpaceOnUse" x2="109.96" gradientTransform="matrix(.25894 0 0 .19506 -18.915 21.137)" y1="-24.911" x1="109.96">
   <stop stop-color="#b3b3b3" offset="0"/>
   <stop stop-color="#dadada" offset="1"/>
  </linearGradient>
  <linearGradient id="linearGradient3034" y2="-7.6657" spreadMethod="reflect" gradientUnits="userSpaceOnUse" x2="89.424" gradientTransform="matrix(.25764 0 0 .25199 -18.787 24.39)" y1="-7.6657" x1="103.95">
   <stop stop-color="#868688" offset="0"/>
   <stop stop-color="#d9d9da" offset="1"/>
  </linearGradient>
  <linearGradient id="linearGradient3036" y2="27.546" gradientUnits="userSpaceOnUse" x2="89.018" gradientTransform="matrix(.56273 0 0 .58293 -44.991 7.8011)" y1="22.537" x1="89.018">
   <stop stop-color="#a0a0a0" offset="0"/>
   <stop stop-color="#4a4a4a" offset="1"/>
  </linearGradient>
  <linearGradient id="linearGradient3040" y2="-7.6657" spreadMethod="reflect" gradientUnits="userSpaceOnUse" x2="89.424" gradientTransform="matrix(.25764 0 0 .25599 -18.787 28.336)" y1="-7.6657" x1="103.95">
   <stop stop-color="#868688" offset="0"/>
   <stop stop-color="#d9d9da" offset="1"/>
  </linearGradient>
  <linearGradient id="linearGradient3042" y2="27.546" gradientUnits="userSpaceOnUse" x2="89.018" gradientTransform="matrix(.56273 0 0 .59218 -44.991 11.484)" y1="22.537" x1="89.018">
   <stop stop-color="#a0a0a0" offset="0"/>
   <stop stop-color="#4a4a4a" offset="1"/>
  </linearGradient>
  <linearGradient id="linearGradient3046" y2="-7.6657" spreadMethod="reflect" gradientUnits="userSpaceOnUse" x2="89.424" gradientTransform="matrix(.25764 0 0 .25599 -18.787 32.336)" y1="-7.6657" x1="103.95">
   <stop stop-color="#868688" offset="0"/>
   <stop stop-color="#d9d9da" offset="1"/>
  </linearGradient>
  <linearGradient id="linearGradient3048" y2="27.546" gradientUnits="userSpaceOnUse" x2="89.018" gradientTransform="matrix(.56273 0 0 .59218 -44.991 15.484)" y1="22.537" x1="89.018">
   <stop stop-color="#a0a0a0" offset="0"/>
   <stop stop-color="#4a4a4a" offset="1"/>
  </linearGradient>
  <linearGradient id="c" y2="39.735" gradientUnits="userSpaceOnUse" y1="5.3943" gradientTransform="matrix(.31834 0 0 .29648 -3.5513 6.6118)" x2="23.732" x1="23.732">
   <stop stop-color="#90dbec" offset="0"/>
   <stop stop-color="#55c1ec" offset=".26238"/>
   <stop stop-color="#3689e6" offset=".70495"/>
   <stop stop-color="#2b63a0" offset="1"/>
  </linearGradient>
  <linearGradient id="d" y2="46.971" xlink:href="#b" gradientUnits="userSpaceOnUse" y1="46.971" gradientTransform="matrix(0 -.34745 .37307 0 -16.815 22.561)" x2="18.681" x1="40.958"/>
  <linearGradient id="b" y2="46.971" gradientUnits="userSpaceOnUse" y1="46.971" gradientTransform="matrix(0 -.53720 .57682 0 -15.997 19.866)" x2="18.681" x1="40.958">
   <stop stop-color="#fff" offset="0"/>
   <stop stop-color="#fff" stop-opacity=".23529" offset="0.45"/>
   <stop stop-color="#fff" stop-opacity=".15686" offset="0.65"/>
   <stop stop-color="#fff" stop-opacity=".39216" offset="1"/>
  </linearGradient>
  <linearGradient id="a" y2="46.971" xlink:href="#b" gradientUnits="userSpaceOnUse" y1="46.971" gradientTransform="matrix(0 -.34745 -.37307 0 32.815 18.561)" x2="18.681" x1="40.958"/>
 </defs>
 <metadata>
  <rdf:RDF>
   <cc:Work rdf:about="">
    <dc:format>image/svg+xml</dc:format>
    <dc:type rdf:resource="http://purl.org/dc/dcmitype/StillImage"/>
    <dc:title/>
   </cc:Work>
  </rdf:RDF>
 </metadata>
 <g transform="translate(0,-16)">
  <g>
   <path d="m14.46 29.5c0 1.1988-2.8973 2-6.4673 2-3.5699 0-6.4673-0.80119-6.4673-2 0-4.6344-0.79048-3.1948 6.4673-3.2494 7.4247-0.057 6.4677-1.411 6.4677 3.249z" stroke="url(#linearGradient3048)" fill="url(#linearGradient3046)"/>
   <path d="m14.5 26.5c0 1.1046-2.9102 2-6.5 2-3.5899 0-6.5-0.895-6.5-2 0-1.1046 2.9101-2 6.5-2 3.59 0 6.5 0.895 6.5 2z" stroke="#d8d8d8" fill="none"/>
   <path d="m14.46 25.5c0 1.1571-2.8973 2-6.4673 2-3.5699 0-6.4673-0.80119-6.4673-2 0-4.6344-0.79048-3.1948 6.4673-3.2494 7.4247-0.057 6.4677-1.411 6.4677 3.249z" stroke="url(#linearGradient3042)" fill="url(#linearGradient3040)"/>
   <path d="m14.5 22.5c0 1.1046-2.9102 2-6.5 2-3.5899 0-6.5-0.895-6.5-2 0-1.1046 2.9101-2 6.5-2 3.59 0 6.5 0.895 6.5 2z" stroke="#d8d8d8" fill="none"/>
   <path d="m14.46 21.5c0 1.2179-2.8973 2-6.4673 2-3.5699 0-6.4673-0.94883-6.4673-2 0-4.3445-0.79048-3.0464 6.4673-3.1002 7.424-0.0555 6.4673-0.82952 6.4673 3.1002z" stroke="url(#linearGradient3036)" fill="url(#linearGradient3034)"/>
   <path d="m14.5 18.5c0 1.1046-2.9102 2-6.5 2-3.5899 0-6.5-0.895-6.5-2 0-1.1046 2.9101-2 6.5-2 3.59 0 6.5 0.895 6.5 2z" stroke="url(#linearGradient3031)" fill="url(#linearGradient3029)"/>
  </g>
  <rect opacity=".5" style="color:#000000" rx="17.5" ry="1.5" height="13" width="11" stroke="url(#linearGradient3110)" y="17.5" x="2.5" fill="none"/>
 </g>
 <g stroke-linejoin="round" stroke-linecap="round">
  <path d="m4.2041 15.677 4.5275-3.67-4.5275-3.6836v2.3586h-3.8807v2.5871h3.8807z" display="block" fill="url(#c)"/>
  <g stroke-miterlimit="7">
   <path d="m4.2041 15.677 4.5275-3.67-4.5275-3.6836v2.3586h-3.8807v2.5871h3.8807z" fill-opacity=".98431" display="block" stroke="#2f78c8" stroke-width=".64678" fill="#46a9eb"/>
   <path d="m4.8509 14.312 2.8682-2.305-2.8682-2.3428v1.6648h-3.8807v1.2936h3.8807z" display="block" stroke="url(#d)" stroke-width=".62345" fill="none"/>
   <path d="m11.796 11.677-4.5276-3.6696 4.5276-3.684v2.3591h3.8807v2.5871h-3.8807z" display="block" stroke="#8e56dc" stroke-width=".64678" fill="#d8a7ff"/>
   <path d="m11.149 10.312-2.8681-2.3046 2.8681-2.3432v1.665h3.8807v1.2936h-3.8807z" display="block" stroke="url(#a)" stroke-width=".62345" fill="none"/>
  </g>
 </g>
</svg>
